X:272
T:Eighth of January, The
M:4/4
L:1/8
K:D
de | f2 fa fe d2 | efed B2 Bd | e2 ef edBA | dBAF D2 :|
DE | F2 A2 A2 F2 | ABAF EDDE  | F2 A2 dBAF | EDEF D2 :|]
